X:296
T:Happy Clown
M:6/8
L:1/8
K:G
D | G2A BAG | d2d d2g | f2e d2c | B2A G2D | 
G2A BAG | d2d d2g | fed ed^c | d3 d2 :| 
d | dBc ded | dcB c2 c | cAB cdc | cBA B2d | 
g2d g2d | gfe d2c | BAG DGF | G3 G2 :| 

